build/img/svg/icon-telegram.svg

<svg width="21" height="18" viewBox="0 0 21 18" fill="none" xmlns="http://www.w3.org/2000/svg">
<path d="M7.94817 15.7818C8.04721 14.4093 8.14625 13.0368 8.22845 11.6633C8.24232 11.431 8.39384 11.326 8.53546 11.1997C11.2154 8.81884 13.8961 6.4393 16.5773 4.06107C16.7458 3.92019 16.9061 3.77027 17.0577 3.61199C17.2023 3.4516 17.1359 3.3476 16.9269 3.33399C16.6764 3.31649 16.4823 3.45355 16.2852 3.57505C13.0169 5.59979 9.72986 7.60801 6.48043 9.66483C5.85451 10.0604 5.33357 10.1596 4.62743 9.89909C3.4469 9.46362 2.2218 9.14674 1.0175 8.7725C0.667899 8.66267 0.243027 8.56157 0.2252 8.12902C0.207373 7.69647 0.596591 7.52053 0.936291 7.38736C2.46345 6.79053 3.99755 6.21315 5.52967 5.6309C10.0597 3.91235 14.59 2.19509 19.1206 0.479135C19.2684 0.420309 19.4199 0.370954 19.5742 0.331384C20.1685 0.1953 20.625 0.51121 20.7062 1.10901C20.7874 1.70681 20.5805 2.28128 20.4576 2.85866C19.5056 7.26585 18.5512 11.6747 17.5945 16.0851C17.337 17.2768 16.6417 17.5344 15.6355 16.8073C14.2301 15.7915 12.8228 14.7797 11.4274 13.7512C11.2026 13.586 11.0817 13.6016 10.8886 13.7921C10.2211 14.4501 9.5308 15.0868 8.8514 15.7361C8.71739 15.8778 8.55877 15.995 8.38295 16.0822C7.99175 16.2494 7.91846 16.1988 7.94817 15.7818Z" fill="#FDFEFE"/>
</svg>

<svg width="21" height="18" fill="none" xmlns="http://www.w3.org/2000/svg"><path d="M7.948 15.782c.1-1.373.198-2.745.28-4.119.014-.232.166-.337.307-.463 2.68-2.381 5.361-4.76 8.042-7.139.169-.14.33-.29.48-.449.145-.16.079-.264-.13-.278-.25-.018-.445.12-.642.241C13.017 5.6 9.73 7.608 6.48 9.665c-.625.395-1.146.495-1.853.234-1.18-.435-2.405-.752-3.61-1.126-.35-.11-.774-.211-.792-.644-.018-.433.372-.608.711-.742 1.527-.596 3.062-1.174 4.594-1.756 4.53-1.719 9.06-3.436 13.59-5.152.148-.059.3-.108.454-.148.595-.136 1.051.18 1.132.778.081.598-.125 1.172-.248 1.75-.952 4.407-1.907 8.816-2.863 13.226-.258 1.192-.953 1.45-1.96.722-1.405-1.015-2.812-2.027-4.208-3.056-.224-.165-.345-.15-.538.041-.668.658-1.358 1.295-2.038 1.944a1.66 1.66 0 01-.468.346c-.391.167-.465.117-.435-.3z" fill="#FDFEFE"/></svg>
